assets/images/ico_fb.svg

<svg width="11" height="22" viewBox="0 0 11 22" fill="none" xmlns="http://www.w3.org/2000/svg">
<path fill-rule="evenodd" clip-rule="evenodd" d="M9.95107 10.6611H7.07062C7.07062 15.4323 7.07062 21.3052 7.07062 21.3052H2.80237C2.80237 21.3052 2.80237 15.4893 2.80237 10.6611H0.773438V6.89915H2.80237V4.46585C2.80237 2.72313 3.60111 0 7.10985 0L10.2727 0.0125694V3.66436C10.2727 3.66436 8.35074 3.66436 7.97705 3.66436C7.60335 3.66436 7.07205 3.85808 7.07205 4.68914V6.89989H10.3241L9.95107 10.6611Z" fill="white"/>
</svg>

<svg width="11" height="22" fill="none" xmlns="http://www.w3.org/2000/svg"><path fill-rule="evenodd" clip-rule="evenodd" d="M9.951 10.661h-2.88v10.644H2.802V10.661H.773V6.9h2.03V4.466C2.802 2.723 3.6 0 7.11 0l3.163.013v3.651H7.977c-.374 0-.905.194-.905 1.025V6.9h3.252l-.373 3.762z" fill="#fff"/></svg>
